src/static/media/grpc.svg

<svg height="96" viewBox="0 0 96 96" width="96" xmlns="http://www.w3.org/2000/svg"><path d="m39.8581855 46.474523h1.8077139c.5610174 0 1.0077468-.0748799 1.3402016-.224642s.5869867-.3644179.7636033-.6439739c.1766166-.2795559.2960907-.6240035.358426-1.0333533.0623353-.4093497.0935025-.8835893.0935025-1.4227328 0-.5391436-.0311672-1.0133832-.0935025-1.4227329-.0623353-.4093498-.1921985-.7587894-.3895935-1.0483295-.197395-.28954-.472705-.5041958-.8259382-.6439738s-.8207407-.2096659-1.4025366-.2096659h-1.6518765zm-3.179083-9.6471631h5.1114668c3.7401163 0 5.6101464 2.1754353 5.6101464 6.5263711 0 1.2907082-.2025865 2.3992434-.6077658 3.3256389-.4051793.9263954-1.1168296 1.6706233-2.1349724 2.2327058l3.4284228 10.1486632h-3.3660879l-3.0111723-9.6576869h-1.8509546v9.6576869h-3.179083zm13.2773468 0h4.7686243c.8726938 0 1.6414838.1144966 2.3063936.3434932.6649094.2289967 1.2674749.6349391 1.8077139 1.2178396.5402391.5829005.9142448 1.2646757 1.1220291 2.045346.2077844.7806703.3116749 1.8371616.3116749 3.1695056 0 .9784401-.0784656 1.678834-.1927469 2.3762329-.1142812.6973987-.4831177 1.9106174-1.9322668 2.7338081-.9063677.5148633-2.2072602.7000996-3.3916304.7000996h-1.6207088v9.647054h-3.1790829zm3.1790829 9.6471631h1.5272064c.6441312 0 1.142806-.0824298 1.496039-.2472919.3532333-.1648621.6129597-.3892543.7791872-.6731835.1662272-.2839291.2649232-.6273866.2960909-1.0303828s.0467513-.8517807.0467513-1.346367c0-.4579502-.0155836-.8929964-.0467513-1.3051516s-.1246691-.769351-.2805072-1.0715982c-.1558381-.3022471-.3999811-.5403777-.7324359-.7143988-.3324547-.1740211-.8103513-.2610303-1.433704-.2610303h-1.6518764zm19.6043449 7.6211776c0 .6869899-.129863 1.3427431-.3895933 1.9672793-.2597305.6245363-.6181529 1.1709973-1.075278 1.6393995-.4571255.4684022-.992162.8431183-1.6051255 1.1241596s-1.2726685.4215598-1.979135.4215598c-.6025741 0-1.2155287-.0832702-1.8388813-.2498132s-1.1843616-.4527845-1.6830438-.858733c-.4986823-.4059486-.90905-.9420008-1.2311156-1.6081728s-.483096-1.5092833-.483096-2.5293591v-12.2408491c0-.7286256.1246688-1.4051964.37401-2.0297327.2493411-.6245362.6025689-1.1657928 1.0596944-1.6237861.4571251-.4579932 1.0025507-.8170962 1.6362924-1.0773196.6337421-.2602234 1.3350032-.3903332 2.1038052-.3903332.7272448 0 1.4025334.1301098 2.025886.3903332.6233527.2602234 1.1635837.6245308 1.6207092 1.092933.4571251.4684021.8155475 1.0304763 1.075278 1.6862394.2597303.655763.3895933 1.3687645.3895933 2.1390259v1.2490662h-3.1790829v-1.0617063c0-.6245362-.176614-1.1657928-.529847-1.6237861-.3532333-.4579932-.8311299-.6869864-1.4337043-.6869864-.7895802 0-1.3142275.2446063-1.5739578.7338264-.2597302.4892201-.3895933 1.1085425-.3895933 1.857986v11.3665028c0 .6453541.1402522 1.1866107.420761 1.6237861.2805085.4371754.7843779.6557597 1.5116227.6557597.2077843 0 .4311488-.0364307.6701008-.1092932.238952-.0728626.4571219-.1925636.6545171-.3591066.1973949-.166543.3584253-.3955362.483096-.6869864.1246704-.2914503.1870048-.6557576.1870048-1.092933v-1.0929329h3.1790829zm6.2286951-6.1799152c0-.8115971-.6561252-1.4695265-1.4654964-1.4695265l-7.9394076-.0000001v2.9390528l6.4739113.0000002v3.2781743h-.9977209l2.4800707 3.5042553 2.4800707-3.5042553h-1.0314278zm-55.7538211 1.4977904v4.4010849c0 .9159865.1558358 1.7122583.4675122 2.3888392.3116763.6765809.7220441 1.2386551 1.2311155 1.6862394.5090713.4475843 1.0804694.7858697 1.7142113 1.0148663.633742.2289966 1.2726689.3434932 1.9168001.3434932.6441311 0 1.2830581-.1144966 1.9168-.3434932.633742-.2289966 1.20514-.567282 1.7142114-1.0148663s.9194391-1.0096585 1.2311155-1.6862394.4675122-1.4728527.4675122-2.3888392v-7.3338924l-5.6964328-.0086877-.007216 2.9407354h2.5245659l-.0000001 4.4018447c0 .7702614-.2129756 1.33754-.6389333 1.7018528s-.9298269.5464664-1.5116228.5464664-1.0856651-.1821536-1.5116228-.5464664-.6389334-.9315914-.6389334-1.7018528v-11.7412226c0-.7702613.2129757-1.3375399.6389334-1.7018527s.9298269-.5464665 1.5116228-.5464665 1.0856651.1821537 1.5116228.5464665.6389333.9315914.6389333 1.7018527v1.1241596h3.179083v-1.1241596c0-.8951686-.1558358-1.686236-.4675122-2.3732258-.3116764-.6869899-.7220441-1.2542685-1.2311155-1.7018528s-1.0804694-.7858697-1.7142114-1.0148663c-.6337419-.2289966-1.2726689-.3434932-1.9168-.3434932-.6441312 0-1.2830581.1144966-1.9168001.3434932-.6337419.2289966-1.20514.567282-1.7142113 1.0148663-.5090714.4475843-.9194392 1.0148629-1.2311155 1.7018528-.3116764.6869898-.4675122 1.4780572-.4675122 2.3732258v4.4010849h-3.2523306v-3.2781743h.9977208l-2.4800706-3.5042554-2.4800707 3.5042554h1.0314279v4.7477007c0 .8115971.6561251 1.4695264 1.4654963 1.4695264z" fill="#fff"/></svg>

<?xml version="1.0" encoding="UTF-8"?>
<svg width="96px" height="96px" viewBox="0 0 96 96" version="1.1" xmlns="http://www.w3.org/2000/svg" xmlns:xlink="http://www.w3.org/1999/xlink">
    <!-- Generator: Sketch 52.4 (67378) - http://www.bohemiancoding.com/sketch -->
    <title>grpc</title>
    <desc>Created with Sketch.</desc>
    <g id="grpc" stroke="none" stroke-width="1" fill="none" fill-rule="evenodd">
        <path d="M39.8581855,46.474523 L41.6658994,46.474523 C42.2269168,46.474523 42.6736462,46.3996431 43.006101,46.249881 C43.3385558,46.1001189 43.5930877,45.8854631 43.7697043,45.6059071 C43.9463209,45.3263512 44.065795,44.9819036 44.1281303,44.5725538 C44.1904656,44.1632041 44.2216328,43.6889645 44.2216328,43.149821 C44.2216328,42.6106774 44.1904656,42.1364378 44.1281303,41.7270881 C44.065795,41.3177383 43.9359318,40.9682987 43.7385368,40.6787586 C43.5411418,40.3892186 43.2658318,40.1745628 42.9125986,40.0347848 C42.5593654,39.8950068 42.0918579,39.8251189 41.510062,39.8251189 L39.8581855,39.8251189 L39.8581855,46.474523 Z M36.6791025,36.8273599 L41.7905693,36.8273599 C45.5306856,36.8273599 47.4007157,39.0027952 47.4007157,43.353731 C47.4007157,44.6444392 47.1981292,45.7529744 46.7929499,46.6793699 C46.3877706,47.6057653 45.6761203,48.3499932 44.6579775,48.9120757 L48.0864003,59.0607389 L44.7203124,59.0607389 L41.7091401,49.403052 L39.8581855,49.403052 L39.8581855,59.0607389 L36.6791025,59.0607389 L36.6791025,36.8273599 Z M49.9564493,36.8273599 L54.7250736,36.8273599 C55.5977674,36.8273599 56.3665574,36.9418565 57.0314672,37.1708531 C57.6963766,37.3998498 58.2989421,37.8057922 58.8391811,38.3886927 C59.3794202,38.9715932 59.7534259,39.6533684 59.9612102,40.4340387 C60.1689946,41.214709 60.2728851,42.2712003 60.2728851,43.6035443 C60.2728851,44.5819844 60.1944195,45.2823783 60.0801382,45.9797772 C59.965857,46.6771759 59.5970205,47.8903946 58.1478714,48.7135853 C57.2415037,49.2284486 55.9406112,49.4136849 54.756241,49.4136849 L53.1355322,49.4136849 L53.1355322,59.0607389 L49.9564493,59.0607389 L49.9564493,36.8273599 Z M53.1355322,46.474523 L54.6627386,46.474523 C55.3068698,46.474523 55.8055446,46.3920932 56.1587776,46.2272311 C56.5120109,46.062369 56.7717373,45.8379768 56.9379648,45.5540476 C57.104192,45.2701185 57.202888,44.926661 57.2340557,44.5236648 C57.2652234,44.1206686 57.280807,43.6718841 57.280807,43.1772978 C57.280807,42.7193476 57.2652234,42.2843014 57.2340557,41.8721462 C57.202888,41.459991 57.1093866,41.1027952 56.9535485,40.800548 C56.7977104,40.4983009 56.5535674,40.2601703 56.2211126,40.0861492 C55.8886579,39.9121281 55.4107613,39.8251189 54.7874086,39.8251189 L53.1355322,39.8251189 L53.1355322,46.474523 Z M72.7398771,54.0957006 C72.7398771,54.7826905 72.6100141,55.4384437 72.3502838,56.0629799 C72.0905533,56.6875162 71.7321309,57.2339772 71.2750058,57.7023794 C70.8178803,58.1707816 70.2828438,58.5454977 69.6698803,58.826539 C69.0569168,59.1075803 68.3972118,59.2480988 67.6907453,59.2480988 C67.0881712,59.2480988 66.4752166,59.1648286 65.851864,58.9982856 C65.2285114,58.8317426 64.6675024,58.5455011 64.1688202,58.1395526 C63.6701379,57.733604 63.2597702,57.1975518 62.9377046,56.5313798 C62.615639,55.8652078 62.4546086,55.0220965 62.4546086,54.0020207 L62.4546086,41.7611716 C62.4546086,41.032546 62.5792774,40.3559752 62.8286186,39.7314389 C63.0779597,39.1069027 63.4311875,38.5656461 63.888313,38.1076528 C64.3454381,37.6496596 64.8908637,37.2905566 65.5246054,37.0303332 C66.1583475,36.7701098 66.8596086,36.64 67.6284106,36.64 C68.3556554,36.64 69.030944,36.7701098 69.6542966,37.0303332 C70.2776493,37.2905566 70.8178803,37.654864 71.2750058,38.1232662 C71.7321309,38.5916683 72.0905533,39.1537425 72.3502838,39.8095056 C72.6100141,40.4652686 72.7398771,41.1782701 72.7398771,41.9485315 L72.7398771,43.1975977 L69.5607942,43.1975977 L69.5607942,42.1358914 C69.5607942,41.5113552 69.3841802,40.9700986 69.0309472,40.5121053 C68.6777139,40.0541121 68.1998173,39.8251189 67.5972429,39.8251189 C66.8076627,39.8251189 66.2830154,40.0697252 66.0232851,40.5589453 C65.7635549,41.0481654 65.6336918,41.6674878 65.6336918,42.4169313 L65.6336918,53.7834341 C65.6336918,54.4287882 65.773944,54.9700448 66.0544528,55.4072202 C66.3349613,55.8443956 66.8388307,56.0629799 67.5660755,56.0629799 C67.7738598,56.0629799 67.9972243,56.0265492 68.2361763,55.9536867 C68.4751283,55.8808241 68.6932982,55.7611231 68.8906934,55.5945801 C69.0880883,55.4280371 69.2491187,55.1990439 69.3737894,54.9075937 C69.4984598,54.6161434 69.5607942,54.2518361 69.5607942,53.8146607 L69.5607942,52.7217278 L72.7398771,52.7217278 L72.7398771,54.0957006 Z M78.9685722,47.9157854 C78.9685722,47.1041883 78.312447,46.4462589 77.5030758,46.4462589 L69.5636682,46.4462588 L69.5636682,49.3853116 L76.0375795,49.3853118 L76.0375795,52.6634861 L75.0398586,52.6634861 L77.5199293,56.1677414 L80,52.6634861 L78.9685722,52.6634861 L78.9685722,47.9157854 Z M23.2147511,49.4135758 L23.2147511,53.8146607 C23.2147511,54.7306472 23.3705869,55.526919 23.6822633,56.2034999 C23.9939396,56.8800808 24.4043074,57.442155 24.9133788,57.8897393 C25.4224501,58.3373236 25.9938482,58.675609 26.6275901,58.9046056 C27.2613321,59.1336022 27.900259,59.2480988 28.5443902,59.2480988 C29.1885213,59.2480988 29.8274483,59.1336022 30.4611902,58.9046056 C31.0949322,58.675609 31.6663302,58.3373236 32.1754016,57.8897393 C32.684473,57.442155 33.0948407,56.8800808 33.4065171,56.2034999 C33.7181935,55.526919 33.8740293,54.7306472 33.8740293,53.8146607 L33.8740293,46.4807683 L28.1775965,46.4720806 L28.1703805,49.412816 L30.6949464,49.412816 L30.6949463,53.8146607 C30.6949463,54.5849221 30.4819707,55.1522007 30.056013,55.5165135 C29.6300553,55.8808263 29.1261861,56.0629799 28.5443902,56.0629799 C27.9625943,56.0629799 27.4587251,55.8808263 27.0327674,55.5165135 C26.6068097,55.1522007 26.393834,54.5849221 26.393834,53.8146607 L26.393834,42.0734381 C26.393834,41.3031768 26.6068097,40.7358982 27.0327674,40.3715854 C27.4587251,40.0072726 27.9625943,39.8251189 28.5443902,39.8251189 C29.1261861,39.8251189 29.6300553,40.0072726 30.056013,40.3715854 C30.4819707,40.7358982 30.6949463,41.3031768 30.6949463,42.0734381 L30.6949463,43.1975977 L33.8740293,43.1975977 L33.8740293,42.0734381 C33.8740293,41.1782695 33.7181935,40.3872021 33.4065171,39.7002123 C33.0948407,39.0132224 32.684473,38.4459438 32.1754016,37.9983595 C31.6663302,37.5507752 31.0949322,37.2124898 30.4611902,36.9834932 C29.8274483,36.7544966 29.1885213,36.64 28.5443902,36.64 C27.900259,36.64 27.2613321,36.7544966 26.6275901,36.9834932 C25.9938482,37.2124898 25.4224501,37.5507752 24.9133788,37.9983595 C24.4043074,38.4459438 23.9939396,39.0132224 23.6822633,39.7002123 C23.3705869,40.3872021 23.2147511,41.1782695 23.2147511,42.0734381 L23.2147511,46.474523 L19.9624205,46.474523 L19.9624205,43.1963487 L20.9601413,43.1963487 L18.4800707,39.6920933 L16,43.1963487 L17.0314279,43.1963487 L17.0314279,47.9440494 C17.0314279,48.7556465 17.687553,49.4135758 18.4969242,49.4135758 L23.2147511,49.4135758 Z" fill="#FFFFFF" fill-rule="nonzero"></path>
    </g>
</svg>
